assets/settings.svg

<?xml version="1.0" encoding="UTF-8"?>
<svg width="161px" height="199px" viewBox="0 0 161 199" version="1.1" xmlns="http://www.w3.org/2000/svg" xmlns:xlink="http://www.w3.org/1999/xlink">
    <!-- Generator: Sketch 51.2 (57519) - http://www.bohemiancoding.com/sketch -->
    <title>settings</title>
    <desc>Created with Sketch.</desc>
    <defs>
        <filter x="-18.7%" y="-192.0%" width="148.0%" height="564.3%" filterUnits="objectBoundingBox" id="filter-1">
            <feOffset dx="0" dy="20" in="SourceAlpha" result="shadowOffsetOuter1"></feOffset>
            <feGaussianBlur stdDeviation="50" in="shadowOffsetOuter1" result="shadowBlurOuter1"></feGaussianBlur>
            <feColorMatrix values="0 0 0 0 0   0 0 0 0 0   0 0 0 0 0  0 0 0 0.08 0" type="matrix" in="shadowBlurOuter1" result="shadowMatrixOuter1"></feColorMatrix>
            <feMerge>
                <feMergeNode in="shadowMatrixOuter1"></feMergeNode>
                <feMergeNode in="SourceGraphic"></feMergeNode>
            </feMerge>
        </filter>
    </defs>
    <g id="Page-1" stroke="none" stroke-width="1" fill="none" fill-rule="evenodd">
        <g id="Prescriptions" transform="translate(-439.000000, -89.000000)" fill="#BDC1C9" fill-rule="nonzero">
            <g id="menu" filter="url(#filter-1)" transform="translate(-239.000000, 130.000000)">
                <g id="settings" transform="translate(761.000000, 22.000000)">
                    <g id="Capa_1">
                        <g id="Group">
                            <path d="M31.2914405,13.0278351 L28.976618,12.635142 C28.7354906,11.8566451 28.4254697,11.1057056 28.0465553,10.3892129 L29.4106472,8.48086221 C29.9893528,7.66791858 29.8997912,6.55873278 29.1901879,5.85601879 L27.1371608,3.80299165 C26.751357,3.41718789 26.2415449,3.20361795 25.697286,3.20361795 C25.2701461,3.20361795 24.8636743,3.33451566 24.5192067,3.58253236 L22.6039666,4.94662422 C21.8599165,4.55393111 21.0814196,4.23013152 20.2753653,3.98900418 L19.8895616,1.70173904 C19.7242171,0.716561587 18.8768267,6.88935282e-05 17.8778706,6.88935282e-05 L14.977453,6.88935282e-05 C13.9784969,6.88935282e-05 13.1311065,0.716561587 12.965762,1.70173904 L12.5661795,4.044119 C11.794572,4.28524635 11.0436326,4.60215658 10.3271399,4.98796033 L8.43256785,3.62386848 C8.08810021,3.37585177 7.67473904,3.24495407 7.24759916,3.24495407 C6.70334029,3.24495407 6.18663883,3.45852401 5.80772443,3.84432777 L3.74780793,5.89735491 C3.04509395,6.60006889 2.94864301,7.7092547 3.52734864,8.52219833 L4.90521921,10.4581065 C4.5263048,11.1814885 4.22317328,11.932428 3.98893528,12.7109248 L1.70167015,13.0967286 C0.716492693,13.2620731 0,14.1094635 0,15.1084196 L0,18.0088372 C0,19.0077933 0.716492693,19.8551837 1.70167015,20.0205282 L4.0440501,20.4201106 C4.28517745,21.1917182 4.60208768,21.9426576 4.98789144,22.6591503 L3.63068894,24.546833 C3.0519833,25.3597766 3.14154489,26.4689624 3.85114823,27.1716764 L5.90417537,29.2247035 C6.28997912,29.6105073 6.79979123,29.8240772 7.3440501,29.8240772 C7.77118998,29.8240772 8.1776618,29.6931795 8.52212944,29.4451628 L10.4580376,28.0672923 C11.1538622,28.432428 11.8841336,28.7286701 12.6350731,28.9629081 L13.0208768,31.2777307 C13.1862213,32.2629081 14.0336117,32.9794008 15.0325678,32.9794008 L17.9398747,32.9794008 C18.9388309,32.9794008 19.7862213,32.2629081 19.9515658,31.2777307 L20.3442589,28.9629081 C21.1227557,28.7217808 21.8736952,28.4117599 22.5901879,28.0328455 L24.4985386,29.3969374 C24.8430063,29.6449541 25.2563674,29.7758518 25.6835073,29.7758518 L25.6835073,29.7758518 C26.2277662,29.7758518 26.7375783,29.5622818 27.123382,29.1764781 L29.1764092,27.1234509 C29.8791232,26.420737 29.9755741,25.3115511 29.3968685,24.4986075 L28.0327766,22.5833674 C28.411691,21.8599854 28.7286013,21.1090459 28.9628392,20.3374384 L31.2776618,19.9516347 C32.2628392,19.7862902 32.9793319,18.9388998 32.9793319,17.9399436 L32.9793319,15.0395261 C32.9931106,14.0405699 32.276618,13.1931795 31.2914405,13.0278351 Z M31.1329854,17.9399436 C31.1329854,18.0295052 31.0709812,18.1052881 30.9814196,18.1190668 L28.0878914,18.6013215 C27.7227557,18.6633257 27.4334029,18.9320104 27.3438413,19.2833674 C27.0820459,20.2961023 26.6824635,21.267501 26.1450939,22.1700063 C25.9590814,22.4869165 25.9728601,22.8796096 26.1864301,23.1827411 L27.8881002,25.5802359 C27.9363257,25.6491294 27.9294363,25.7524697 27.8674322,25.8144739 L25.814405,27.867501 C25.7661795,27.9157265 25.7179541,27.9226159 25.6835073,27.9226159 C25.6421712,27.9226159 25.6077244,27.9088372 25.580167,27.8881691 L23.1895616,26.186499 C22.8933194,25.972929 22.493737,25.9591503 22.1768267,26.1451628 C21.2743215,26.6825324 20.3029228,27.0821148 19.2901879,27.3439102 C18.9319415,27.4334718 18.6632568,27.729714 18.608142,28.0879603 L18.1189979,30.9814885 C18.1052192,31.0710501 18.0294363,31.1330543 17.9398747,31.1330543 L15.0394572,31.1330543 C14.9498956,31.1330543 14.8741127,31.0710501 14.860334,30.9814885 L14.3780793,28.0879603 C14.3160752,27.7228246 14.0473904,27.4334718 13.6960334,27.3439102 C12.7108559,27.0890042 11.7601253,26.6963111 10.8713987,26.186499 C10.7267223,26.1038267 10.5613779,26.0624906 10.4029228,26.0624906 C10.2169102,26.0624906 10.0240084,26.1176054 9.86555324,26.2347244 L7.45427975,27.9501733 C7.41983299,27.9708413 7.38538622,27.98462 7.35093946,27.98462 C7.32338205,27.98462 7.26826722,27.9777307 7.22004175,27.9295052 L5.16701461,25.8764781 C5.10501044,25.8144739 5.09812109,25.718023 5.14634656,25.6422401 L6.84112735,23.2654134 C7.05469729,22.9622818 7.06847599,22.5626994 6.88246347,22.2457891 C6.34509395,21.3501733 5.93173278,20.3787745 5.66993737,19.3660397 C5.57348643,19.0146827 5.28413361,18.7459979 4.92588727,18.6839937 L2.01169102,18.1879603 C1.92212944,18.1741816 1.86012526,18.0983987 1.86012526,18.0088372 L1.86012526,15.1084196 C1.86012526,15.018858 1.92212944,14.9430752 2.01169102,14.9292965 L4.88455115,14.4470418 C5.24968685,14.3850376 5.54592902,14.1163528 5.63549061,13.7581065 C5.89039666,12.7453716 6.28308977,11.7670835 6.81356994,10.8645783 C6.99958246,10.5476681 6.97891441,10.1549749 6.76534447,9.85873278 L5.04989562,7.44745929 C5.00167015,7.37856576 5.0085595,7.27522547 5.07056367,7.21322129 L7.12359081,5.16019415 C7.17181628,5.11196868 7.22004175,5.10507933 7.25448852,5.10507933 C7.29582463,5.10507933 7.3302714,5.11885804 7.35782881,5.1395261 L9.73465553,6.83430689 C10.0377871,7.04787683 10.4373695,7.06165553 10.7542797,6.87564301 C11.6498956,6.33827349 12.6212944,5.92491232 13.6340292,5.66311691 C13.9853862,5.56666597 14.254071,5.27731315 14.3160752,4.91906681 L14.8121086,2.00487056 C14.8258873,1.91530898 14.9016701,1.8533048 14.9912317,1.8533048 L17.8916493,1.8533048 C17.9812109,1.8533048 18.0569937,1.91530898 18.0707724,2.00487056 L18.5530271,4.87773069 C18.6150313,5.24286639 18.8837161,5.53910856 19.2419624,5.62867015 C20.2822547,5.89046555 21.2743215,6.29693737 22.1974948,6.84119624 C22.514405,7.02720877 22.9070981,7.01343006 23.2102296,6.79986013 L25.5870564,5.09130063 C25.6215031,5.07063257 25.6559499,5.05685386 25.6903967,5.05685386 C25.7179541,5.05685386 25.7730689,5.06374322 25.8212944,5.11196868 L27.8743215,7.16499582 C27.9363257,7.227 27.943215,7.32345094 27.8949896,7.39923382 L26.1933194,9.78983925 C25.9797495,10.0860814 25.9659708,10.4856639 26.1519833,10.8025741 C26.6893528,11.7050793 27.0889353,12.6764781 27.3507307,13.6892129 C27.4402923,14.0474593 27.7365344,14.3161441 28.0947808,14.3712589 L30.988309,14.8604029 C31.0778706,14.8741816 31.1398747,14.9499645 31.1398747,15.0395261 L31.1398747,17.9399436 L31.1329854,17.9399436 L31.1329854,17.9399436 Z" id="Shape"></path>
                            <path d="M16.4931106,9.36958873 C12.5661795,9.36958873 9.37640919,12.5593591 9.37640919,16.4862902 C9.37640919,20.4132213 12.5661795,23.6029916 16.4931106,23.6029916 C20.4200418,23.6029916 23.6098121,20.4132213 23.6098121,16.4862902 C23.6098121,12.5593591 20.4200418,9.36958873 16.4931106,9.36958873 Z M16.4931106,21.7428664 C13.5926931,21.7428664 11.2365344,19.3867077 11.2365344,16.4862902 C11.2365344,13.5858727 13.5926931,11.229714 16.4931106,11.229714 C19.3935282,11.229714 21.7496868,13.5858727 21.7496868,16.4862902 C21.7496868,19.3867077 19.3935282,21.7428664 16.4931106,21.7428664 Z" id="Shape"></path>
                        </g>
                    </g>
                </g>
            </g>
        </g>
    </g>
</svg>

<?xml version="1.0" encoding="UTF-8"?>
<svg version="1.1" viewBox="0 0 33 33" xmlns="http://www.w3.org/2000/svg">
<title>Group 9</title>
<desc>Created with Sketch.</desc>
<g fill="none" fill-rule="evenodd">
<g transform="translate(-522 -152)" fill="#BDC1C9" fill-rule="nonzero">
<g transform="translate(522 152)">
<path d="m31.291 13.028l-2.3148-0.39269c-0.24113-0.7785-0.55115-1.5294-0.93006-2.2459l1.3641-1.9084c0.57871-0.81294 0.48914-1.9221-0.22046-2.6248l-2.053-2.053c-0.3858-0.3858-0.89562-0.59937-1.4399-0.59937-0.42714 0-0.83361 0.1309-1.1781 0.37891l-1.9152 1.3641c-0.74405-0.39269-1.5225-0.71649-2.3286-0.95762l-0.3858-2.2873c-0.16534-0.98518-1.0127-1.7017-2.0117-1.7017h-2.9004c-0.99896 0-1.8463 0.71649-2.0117 1.7017l-0.39958 2.3424c-0.77161 0.24113-1.5225 0.55804-2.239 0.94384l-1.8946-1.3641c-0.34447-0.24802-0.75783-0.37891-1.185-0.37891-0.54426 0-1.061 0.21357-1.4399 0.59937l-2.0599 2.053c-0.70271 0.70271-0.79916 1.8119-0.22046 2.6248l1.3779 1.9359c-0.37891 0.72338-0.68205 1.4743-0.91628 2.2528l-2.2873 0.3858c-0.98518 0.16534-1.7017 1.0127-1.7017 2.0117v2.9004c0 0.99896 0.71649 1.8463 1.7017 2.0117l2.3424 0.39958c0.24113 0.77161 0.55804 1.5225 0.94384 2.239l-1.3572 1.8877c-0.57871 0.81294-0.48914 1.9221 0.22046 2.6248l2.053 2.053c0.3858 0.3858 0.89562 0.59937 1.4399 0.59937 0.42714 0 0.83361-0.1309 1.1781-0.37891l1.9359-1.3779c0.69582 0.36514 1.4261 0.66138 2.177 0.89562l0.3858 2.3148c0.16534 0.98518 1.0127 1.7017 2.0117 1.7017h2.9073c0.99896 0 1.8463-0.71649 2.0117-1.7017l0.39269-2.3148c0.7785-0.24113 1.5294-0.55115 2.2459-0.93006l1.9084 1.3641c0.34447 0.24802 0.75783 0.37891 1.185 0.37891 0.54426 0 1.0541-0.21357 1.4399-0.59937l2.053-2.053c0.70271-0.70271 0.79916-1.8119 0.22046-2.6248l-1.3641-1.9152c0.37891-0.72338 0.69582-1.4743 0.93006-2.2459l2.3148-0.3858c0.98518-0.16534 1.7017-1.0127 1.7017-2.0117v-2.9004c0.013779-0.99896-0.70271-1.8463-1.6879-2.0117zm-0.15846 4.9121c0 0.089562-0.062004 0.16534-0.15157 0.17912l-2.8935 0.48225c-0.36514 0.062004-0.65449 0.33069-0.74405 0.68205-0.2618 1.0127-0.66138 1.9841-1.1987 2.8866-0.18601 0.31691-0.17223 0.7096 0.041336 1.0127l1.7017 2.3975c0.048226 0.068894 0.041336 0.17223-0.020668 0.23424l-2.053 2.053c-0.048226 0.048226-0.096451 0.055115-0.1309 0.055115-0.041336 0-0.075783-0.013779-0.10334-0.034447l-2.3906-1.7017c-0.29624-0.21357-0.69582-0.22735-1.0127-0.041336-0.90251 0.53737-1.8739 0.93695-2.8866 1.1987-0.35825 0.089562-0.62693 0.3858-0.68205 0.74405l-0.48914 2.8935c-0.013779 0.089562-0.089562 0.15157-0.17912 0.15157h-2.9004c-0.089562 0-0.16534-0.062004-0.17912-0.15157l-0.48225-2.8935c-0.062004-0.36514-0.33069-0.65449-0.68205-0.74405-0.98518-0.25491-1.9359-0.6476-2.8246-1.1574-0.14468-0.082672-0.31002-0.12401-0.46848-0.12401-0.18601 0-0.37891 0.055115-0.53737 0.17223l-2.4113 1.7154c-0.034447 0.020668-0.068894 0.034447-0.10334 0.034447-0.027557 0-0.082672-0.0068893-0.1309-0.055115l-2.053-2.053c-0.062004-0.062004-0.068894-0.15846-0.020668-0.23424l1.6948-2.3768c0.21357-0.30313 0.22735-0.70271 0.041336-1.0196-0.53737-0.89562-0.95073-1.867-1.2125-2.8797-0.096451-0.35136-0.3858-0.62004-0.74405-0.68205l-2.9142-0.49603c-0.089562-0.013779-0.15157-0.089562-0.15157-0.17912v-2.9004c0-0.089562 0.062004-0.16534 0.15157-0.17912l2.8729-0.48225c0.36514-0.062004 0.66138-0.33069 0.75094-0.68894 0.25491-1.0127 0.6476-1.991 1.1781-2.8935 0.18601-0.31691 0.16534-0.7096-0.048225-1.0058l-1.7154-2.4113c-0.048225-0.068894-0.041336-0.17223 0.020668-0.23424l2.053-2.053c0.048225-0.048225 0.096451-0.055115 0.1309-0.055115 0.041336 0 0.075783 0.013779 0.10334 0.034447l2.3768 1.6948c0.30313 0.21357 0.70271 0.22735 1.0196 0.041336 0.89562-0.53737 1.867-0.95073 2.8797-1.2125 0.35136-0.096451 0.62004-0.3858 0.68205-0.74405l0.49603-2.9142c0.013779-0.089562 0.089562-0.15157 0.17912-0.15157h2.9004c0.089562 0 0.16534 0.062004 0.17912 0.15157l0.48225 2.8729c0.062004 0.36514 0.33069 0.66138 0.68894 0.75094 1.0403 0.2618 2.0324 0.66827 2.9555 1.2125 0.31691 0.18601 0.7096 0.17223 1.0127-0.041336l2.3768-1.7086c0.034447-0.020668 0.068894-0.034447 0.10334-0.034447 0.027557 0 0.082672 0.0068894 0.1309 0.055115l2.053 2.053c0.062004 0.062004 0.068894 0.15846 0.020668 0.23424l-1.7017 2.3906c-0.21357 0.29624-0.22735 0.69582-0.041336 1.0127 0.53737 0.90251 0.93695 1.8739 1.1987 2.8866 0.089562 0.35825 0.3858 0.62693 0.74405 0.68205l2.8935 0.48914c0.089562 0.013779 0.15157 0.089562 0.15157 0.17912v2.9004h-0.0068893z"/>
<path d="m16.493 9.3696c-3.9269 0-7.1167 3.1898-7.1167 7.1167s3.1898 7.1167 7.1167 7.1167c3.9269 0 7.1167-3.1898 7.1167-7.1167s-3.1898-7.1167-7.1167-7.1167zm0 12.373c-2.9004 0-5.2566-2.3562-5.2566-5.2566s2.3562-5.2566 5.2566-5.2566c2.9004 0 5.2566 2.3562 5.2566 5.2566s-2.3562 5.2566-5.2566 5.2566z"/>
</g>
</g>
</g>
</svg>
